X: 1
T: Church Island
M: 4/4
L: 1/8
R: reel
K: Dmin
|: DFAd BAGB | AFDF ECA,D | FEFG AGAc | fedc d2 de |
fedc dcAc | BAGB AFDF | ECA,D FEFG |AFEF D2 fg :|
afda gecg | fefg afdA |DFAd fdfa| gece g2 fg |
afdA DFAa | gecG EGcg |fdAF DFAf| edcA d2(3efg|
afda gecg | fefg afdA |A,DFA dfaf | gece g2 fg |
afdA A,DFa | gecG  EGcg | fdAF A,DFf | edcA d2AF ||
